assets/images/lumious.svg

<svg width="146" height="42" viewBox="0 0 146 42" fill="none" xmlns="http://www.w3.org/2000/svg">
<path d="M42.4478 28.4498V14.6279H47.0534V24.62H57.0141V28.4543L42.4478 28.4498Z" fill="white"/>
<path d="M75.3296 14.6279V22.4129C75.3296 24.0395 75.0085 25.3336 74.3662 26.2954C73.724 27.2571 72.8045 27.9383 71.6079 28.3389C70.4119 28.7388 68.9168 28.9388 67.1228 28.9388C65.3287 28.9388 63.8337 28.7388 62.6377 28.3389C61.4416 27.9389 60.5222 27.2611 59.8793 26.3054C59.2365 25.3497 58.915 24.0522 58.915 22.4129V14.6279H63.5207V22.2774C63.5207 23.2707 63.8303 23.987 64.4495 24.4264C65.0687 24.8658 65.961 25.0855 67.1265 25.0855C68.2814 25.0855 69.1713 24.8658 69.7961 24.4264C70.4209 23.987 70.7324 23.2707 70.7305 22.2774V14.6279H75.3296Z" fill="white"/>
<path d="M98.0186 28.4498H93.4129V19.0386H93.3055L89.6613 28.4498H86.1882L82.4926 18.9222H82.3674V28.4498H78.0122V14.6279H85.0809L87.8841 22.3929H88.0084L90.7574 14.6279H98.0233L98.0186 28.4498Z" fill="white"/>
<path d="M100.695 28.4498V14.6279H105.301V28.4543L100.695 28.4498Z" fill="white"/>
<path d="M123.768 16.0065C125.321 17.2186 126.098 19.0776 126.098 21.5835C126.098 24.0894 125.321 25.9483 123.768 27.1604C122.215 28.3724 119.911 28.9784 116.854 28.9784C113.807 28.9784 111.507 28.3724 109.954 27.1604C108.402 25.9483 107.625 24.0894 107.622 21.5835C107.622 19.0794 108.399 17.2204 109.952 16.0065C111.504 14.7927 113.804 14.1867 116.851 14.1885C119.91 14.1867 122.215 14.7927 123.768 16.0065ZM119.993 24.2851C120.694 23.6585 121.045 22.7579 121.046 21.5835C121.046 20.409 120.695 19.5084 119.993 18.8818C119.291 18.2558 118.244 17.9428 116.851 17.9428C115.458 17.9428 114.414 18.2558 113.718 18.8818C113.022 19.5084 112.673 20.409 112.673 21.5835C112.673 22.7579 113.022 23.6585 113.718 24.2851C114.415 24.9111 115.459 25.2241 116.851 25.2241C118.243 25.2241 119.291 24.9111 119.993 24.2851Z" fill="white"/>
<path d="M138.317 17.6533C137.811 17.4109 137.082 17.2897 136.13 17.2897C135.154 17.2897 134.458 17.3897 134.041 17.5897C133.625 17.7897 133.416 18.0833 133.416 18.4705C133.407 18.6063 133.437 18.7418 133.503 18.8616C133.569 18.9815 133.669 19.0809 133.79 19.1487C134.039 19.2905 134.467 19.3938 135.075 19.4586L140.269 19.9232C141.841 20.065 143.022 20.4716 143.813 21.1431C144.604 21.8146 145 22.8281 145 24.1838C145 25.4619 144.682 26.4494 144.045 27.1463C143.408 27.8433 142.474 28.3242 141.242 28.589C140.009 28.8538 138.382 28.9862 136.36 28.9862C134.419 28.9862 132.847 28.8441 131.646 28.5599C130.445 28.2757 129.52 27.7657 128.87 27.03C128.222 26.2949 127.874 25.2556 127.827 23.912H133.188C133.319 24.6483 133.649 25.1553 134.179 25.4328C134.708 25.7104 135.497 25.8492 136.545 25.8492C137.615 25.8492 138.386 25.7425 138.856 25.5292C139.327 25.3159 139.561 24.9825 139.561 24.5292C139.561 24.1547 139.424 23.882 139.151 23.7111C138.877 23.5402 138.467 23.4305 137.919 23.382L132.92 22.8593C131.337 22.6921 130.147 22.2982 129.351 21.6776C128.554 21.057 128.155 20.0692 128.155 18.7142C128.155 17.5627 128.473 16.6558 129.11 15.9934C129.746 15.331 130.657 14.8629 131.841 14.589C133.024 14.3181 134.509 14.1826 136.294 14.1826C138.068 14.1826 139.543 14.3214 140.721 14.599C141.899 14.8765 142.819 15.3574 143.48 16.0416C144.141 16.7258 144.489 17.6618 144.523 18.8496H139.222C139.185 18.5926 139.084 18.3485 138.926 18.1396C138.768 17.9306 138.559 17.7635 138.317 17.6533Z" fill="white"/>
<mask id="path-7-outside-1_486_389" maskUnits="userSpaceOnUse" x="-0.801758" y="5.99219" width="37" height="32" fill="black">
<rect fill="white" x="-0.801758" y="5.99219" width="37" height="32"/>
<path fill-rule="evenodd" clip-rule="evenodd" d="M19.8331 32.9894C19.2692 33.0597 18.6943 33.096 18.1107 33.096C17.5228 33.096 16.9436 33.0592 16.3757 32.9878C16.1068 34.4673 15.3286 35.562 14.2209 35.9341C13.2988 36.2454 12.4172 35.9655 12.3204 35.9347L12.3184 35.9341C10.2418 35.2387 9.65128 32.2452 9.49812 30.0519C8.41535 29.169 7.47796 28.1229 6.72597 26.9525C6.66676 27.2013 6.62013 27.4281 6.57748 27.6355C6.40217 28.488 6.29399 29.0141 5.65433 29.4027C4.70031 29.9827 3.49867 29.6918 3.43513 29.6754C2.20547 29.3591 1.66632 28.3055 1.5327 28.0391C0.224545 25.4738 3.15668 22.3386 3.43513 22.0468C3.86103 21.6026 4.30072 21.2392 4.72563 20.9384C4.70508 20.6429 4.69464 20.3447 4.69464 20.0441C4.69464 12.8357 10.7012 6.99219 18.1107 6.99219C25.5202 6.99219 31.5268 12.8357 31.5268 20.0441C31.5268 20.3501 31.516 20.6537 31.4947 20.9545C31.9117 21.2521 32.3425 21.6104 32.7603 22.0468C33.0518 22.3386 35.9849 25.4738 34.6749 28.0391C34.5422 28.3037 34.003 29.3572 32.7734 29.6754C32.7098 29.6918 31.5082 29.9827 30.5542 29.4027C29.918 29.0149 29.8099 28.4902 29.6348 27.6407C29.5925 27.4353 29.5462 27.2108 29.4876 26.9647C28.7337 28.1352 27.7942 29.1811 26.7093 30.0633C26.5552 32.2556 25.9631 35.2399 23.89 35.9341L23.8881 35.9347C23.7913 35.9655 22.9097 36.2454 21.9876 35.9341C20.8803 35.5621 20.1022 34.4681 19.8331 32.9894Z"/>
</mask>
<path fill-rule="evenodd" clip-rule="evenodd" d="M19.8331 32.9894C19.2692 33.0597 18.6943 33.096 18.1107 33.096C17.5228 33.096 16.9436 33.0592 16.3757 32.9878C16.1068 34.4673 15.3286 35.562 14.2209 35.9341C13.2988 36.2454 12.4172 35.9655 12.3204 35.9347L12.3184 35.9341C10.2418 35.2387 9.65128 32.2452 9.49812 30.0519C8.41535 29.169 7.47796 28.1229 6.72597 26.9525C6.66676 27.2013 6.62013 27.4281 6.57748 27.6355C6.40217 28.488 6.29399 29.0141 5.65433 29.4027C4.70031 29.9827 3.49867 29.6918 3.43513 29.6754C2.20547 29.3591 1.66632 28.3055 1.5327 28.0391C0.224545 25.4738 3.15668 22.3386 3.43513 22.0468C3.86103 21.6026 4.30072 21.2392 4.72563 20.9384C4.70508 20.6429 4.69464 20.3447 4.69464 20.0441C4.69464 12.8357 10.7012 6.99219 18.1107 6.99219C25.5202 6.99219 31.5268 12.8357 31.5268 20.0441C31.5268 20.3501 31.516 20.6537 31.4947 20.9545C31.9117 21.2521 32.3425 21.6104 32.7603 22.0468C33.0518 22.3386 35.9849 25.4738 34.6749 28.0391C34.5422 28.3037 34.003 29.3572 32.7734 29.6754C32.7098 29.6918 31.5082 29.9827 30.5542 29.4027C29.918 29.0149 29.8099 28.4902 29.6348 27.6407C29.5925 27.4353 29.5462 27.2108 29.4876 26.9647C28.7337 28.1352 27.7942 29.1811 26.7093 30.0633C26.5552 32.2556 25.9631 35.2399 23.89 35.9341L23.8881 35.9347C23.7913 35.9655 22.9097 36.2454 21.9876 35.9341C20.8803 35.5621 20.1022 34.4681 19.8331 32.9894Z" fill="#242343"/>
<path d="M19.8331 32.9894L20.817 32.8104L20.6477 31.8801L19.7094 31.9971L19.8331 32.9894ZM16.3757 32.9878L16.5003 31.9956L15.561 31.8776L15.3918 32.809L16.3757 32.9878ZM14.2209 35.9341L13.9025 34.9861L13.901 34.9866L14.2209 35.9341ZM12.3204 35.9347L12.6231 34.9816L12.6225 34.9814L12.3204 35.9347ZM12.3184 35.9341L12.0009 36.8823L12.0086 36.8849L12.0164 36.8874L12.3184 35.9341ZM9.49812 30.0519L10.4957 29.9822L10.4655 29.5504L10.13 29.2768L9.49812 30.0519ZM6.72597 26.9525L7.56729 26.412L6.29723 24.4353L5.75315 26.721L6.72597 26.9525ZM6.57748 27.6355L5.59797 27.4341L6.57748 27.6355ZM5.65433 29.4027L5.13512 28.548L5.13487 28.5482L5.65433 29.4027ZM3.43513 29.6754L3.68453 28.707L3.68428 28.7069L3.43513 29.6754ZM1.5327 28.0391L2.42655 27.5907L2.42356 27.5849L1.5327 28.0391ZM3.43513 22.0468L2.71331 21.3547L2.71167 21.3564L3.43513 22.0468ZM4.72563 20.9384L5.30349 21.7545L5.76223 21.4297L5.72322 20.869L4.72563 20.9384ZM31.4947 20.9545L30.4972 20.8838L30.4576 21.4429L30.9138 21.7684L31.4947 20.9545ZM32.7603 22.0468L32.0379 22.7383L32.0453 22.746L32.0528 22.7536L32.7603 22.0468ZM34.6749 28.0391L33.7842 27.5843L33.781 27.5908L34.6749 28.0391ZM32.7734 29.6754L33.0227 30.6438L33.0238 30.6435L32.7734 29.6754ZM30.5542 29.4027L30.0336 30.2565L30.0347 30.2572L30.5542 29.4027ZM29.6348 27.6407L30.6142 27.4389L29.6348 27.6407ZM29.4876 26.9647L30.4604 26.7331L29.9171 24.4511L28.6469 26.4232L29.4876 26.9647ZM26.7093 30.0633L26.0784 29.2874L25.7422 29.5608L25.7118 29.9931L26.7093 30.0633ZM23.89 35.9341L24.1922 36.8873L24.1999 36.8849L24.2076 36.8823L23.89 35.9341ZM23.8881 35.9347L23.5859 34.9815L23.5854 34.9816L23.8881 35.9347ZM21.9876 35.9341L22.3075 34.9866L22.306 34.9861L21.9876 35.9341ZM18.1107 34.096C18.7358 34.096 19.352 34.0571 19.9568 33.9817L19.7094 31.9971C19.1864 32.0623 18.6529 32.096 18.1107 32.096V34.096ZM16.251 33.98C16.8603 34.0566 17.481 34.096 18.1107 34.096V32.096C17.5645 32.096 17.027 32.0618 16.5003 31.9956L16.251 33.98ZM15.3918 32.809C15.1628 34.0694 14.5487 34.7691 13.9025 34.9861L14.5393 36.882C16.1086 36.3549 17.0509 34.8652 17.3595 33.1666L15.3918 32.809ZM13.901 34.9866C13.3012 35.1892 12.687 35.0019 12.6231 34.9816L12.0177 36.8878C12.1474 36.929 13.2964 37.3017 14.5408 36.8815L13.901 34.9866ZM12.6225 34.9814L12.6205 34.9808L12.0164 36.8874L12.0184 36.888L12.6225 34.9814ZM12.636 34.9858C12.0099 34.7762 11.5008 34.1859 11.1204 33.196C10.7457 32.2209 10.5694 31.0375 10.4957 29.9822L8.50055 30.1215C8.58002 31.2596 8.77552 32.6696 9.25353 33.9134C9.72584 35.1425 10.5503 36.3966 12.0009 36.8823L12.636 34.9858ZM5.88466 27.4931C6.6944 28.7534 7.70279 29.8783 8.86619 30.8269L10.13 29.2768C9.1279 28.4597 8.26152 27.4925 7.56729 26.412L5.88466 27.4931ZM5.75315 26.721C5.68989 26.9868 5.64041 27.2277 5.59797 27.4341L7.55698 27.8369C7.59985 27.6284 7.64362 27.4159 7.69879 27.1841L5.75315 26.721ZM5.59797 27.4341C5.50342 27.8939 5.45222 28.1179 5.37802 28.2829C5.32981 28.3901 5.27743 28.4616 5.13512 28.548L6.17354 30.2573C7.23502 29.6125 7.39363 28.6313 7.55698 27.8369L5.59797 27.4341ZM5.13487 28.5482C4.87546 28.7059 4.54357 28.7644 4.21612 28.7627C3.89609 28.761 3.66537 28.7021 3.68453 28.707L3.18574 30.6438C3.26844 30.6651 3.67031 30.7598 4.20549 30.7627C4.73325 30.7655 5.47918 30.6794 6.17379 30.2572L5.13487 28.5482ZM3.68428 28.7069C2.91615 28.5093 2.54918 27.8352 2.42653 27.5907L0.638873 28.4875C0.783463 28.7758 1.49479 30.2088 3.18599 30.6439L3.68428 28.7069ZM2.42356 27.5849C1.99781 26.75 2.21316 25.7148 2.77264 24.6585C3.31261 23.639 4.04062 22.8608 4.1586 22.7372L2.71167 21.3564C2.5512 21.5246 1.67392 22.4599 1.00525 23.7223C0.356077 24.948 -0.240561 26.763 0.641847 28.4934L2.42356 27.5849ZM4.15695 22.7389C4.53318 22.3465 4.92317 22.0238 5.30349 21.7545L4.14778 20.1222C3.67826 20.4547 3.18887 20.8587 2.71332 21.3547L4.15695 22.7389ZM3.69464 20.0441C3.69464 20.3678 3.70589 20.6892 3.72804 21.0078L5.72322 20.869C5.70428 20.5965 5.69464 20.3215 5.69464 20.0441H3.69464ZM18.1107 5.99219C10.1751 5.99219 3.69464 12.2577 3.69464 20.0441H5.69464C5.69464 13.4138 11.2274 7.99219 18.1107 7.99219V5.99219ZM32.5268 20.0441C32.5268 12.2577 26.0464 5.99219 18.1107 5.99219V7.99219C24.9941 7.99219 30.5268 13.4138 30.5268 20.0441H32.5268ZM32.4922 21.0251C32.5151 20.7008 32.5268 20.3737 32.5268 20.0441H30.5268C30.5268 20.3265 30.5168 20.6065 30.4972 20.8838L32.4922 21.0251ZM30.9138 21.7684C31.2867 22.0346 31.6688 22.3527 32.0379 22.7383L33.4826 21.3552C33.0162 20.8681 32.5367 20.4695 32.0755 20.1405L30.9138 21.7684ZM32.0528 22.7536C32.1609 22.8617 32.8929 23.6389 33.435 24.6595C33.9955 25.7149 34.2105 26.7497 33.7843 27.5843L35.5654 28.4939C36.4493 26.7632 35.8527 24.9478 35.2013 23.7214C34.5314 22.4601 33.6512 21.5237 33.4677 21.34L32.0528 22.7536ZM33.781 27.5908C33.6595 27.8329 33.2922 28.5082 32.5229 28.7073L33.0238 30.6435C34.7138 30.2063 35.4248 28.7744 35.5687 28.4875L33.781 27.5908ZM32.524 28.707C32.5431 28.7021 32.3124 28.761 31.9924 28.7627C31.6649 28.7644 31.333 28.7059 31.0736 28.5482L30.0347 30.2572C30.7293 30.6794 31.4752 30.7655 32.003 30.7627C32.5382 30.7598 32.9401 30.6651 33.0227 30.6438L32.524 28.707ZM31.0747 28.5488C30.9339 28.463 30.8818 28.392 30.8337 28.285C30.7598 28.1204 30.7086 27.897 30.6142 27.4389L28.6554 27.8426C28.8184 28.6337 28.977 29.6124 30.0336 30.2565L31.0747 28.5488ZM30.6142 27.4389C30.5721 27.2344 30.523 26.996 30.4604 26.7331L28.5148 27.1963C28.5694 27.4256 28.6128 27.6361 28.6554 27.8426L30.6142 27.4389ZM27.3402 30.8392C28.5059 29.8913 29.5165 28.7666 30.3283 27.5062L28.6469 26.4232C27.9509 27.5039 27.0826 28.4709 26.0784 29.2874L27.3402 30.8392ZM25.7118 29.9931C25.6376 31.0478 25.4607 32.2286 25.0861 33.201C24.7059 34.188 24.1974 34.7766 23.5725 34.9858L24.2076 36.8823C25.6557 36.3974 26.4798 35.1468 26.9524 33.92C27.4306 32.6786 27.6268 31.2711 27.7068 30.1334L25.7118 29.9931ZM23.5879 34.9808L23.5859 34.9815L24.1902 36.888L24.1922 36.8873L23.5879 34.9808ZM23.5854 34.9816C23.5215 35.0019 22.9073 35.1892 22.3075 34.9866L21.6677 36.8815C22.9121 37.3017 24.061 36.929 24.1908 36.8878L23.5854 34.9816ZM22.306 34.9861C21.66 34.7691 21.0462 34.0699 20.817 32.8104L18.8493 33.1685C19.1583 34.8663 20.1005 36.3551 21.6692 36.882L22.306 34.9861Z" fill="white" mask="url(#path-7-outside-1_486_389)"/>
<path d="M18.1109 26.9071C23.046 26.9071 27.0466 23.8343 27.0466 20.0439C27.0466 16.2534 23.046 13.1807 18.1109 13.1807C13.1759 13.1807 9.17529 16.2534 9.17529 20.0439C9.17529 23.8343 13.1759 26.9071 18.1109 26.9071Z" fill="white"/>
<path d="M14.2829 21.7834C15.3506 21.7834 16.2161 20.6568 16.2161 19.2672C16.2161 17.8775 15.3506 16.751 14.2829 16.751C13.2152 16.751 12.3496 17.8775 12.3496 19.2672C12.3496 20.6568 13.2152 21.7834 14.2829 21.7834Z" fill="#242343"/>
<path d="M21.612 21.7834C22.6797 21.7834 23.5452 20.6568 23.5452 19.2672C23.5452 17.8775 22.6797 16.751 21.612 16.751C20.5443 16.751 19.6787 17.8775 19.6787 19.2672C19.6787 20.6568 20.5443 21.7834 21.612 21.7834Z" fill="#242343"/>
</svg>

<svg width="146" height="42" fill="none" xmlns="http://www.w3.org/2000/svg"><path d="M42.448 28.45V14.628h4.605v9.992h9.961v3.834l-14.566-.004ZM75.33 14.628v7.785c0 1.627-.322 2.92-.964 3.882-.642.962-1.561 1.643-2.758 2.044-1.196.4-2.691.6-4.485.6-1.794 0-3.29-.2-4.485-.6-1.196-.4-2.116-1.078-2.759-2.034-.642-.955-.964-2.253-.964-3.892v-7.785h4.606v7.65c0 .993.31 1.709.928 2.148.62.44 1.512.66 2.677.66 1.155 0 2.045-.22 2.67-.66.625-.439.936-1.155.934-2.149v-7.65h4.6ZM98.019 28.45h-4.606v-9.411h-.108l-3.644 9.41h-3.473l-3.695-9.527h-.126v9.528h-4.355V14.628h7.069l2.803 7.765h.124l2.75-7.765h7.265L98.02 28.45ZM100.695 28.45V14.628h4.606v13.826l-4.606-.004ZM123.768 16.006c1.553 1.213 2.33 3.072 2.33 5.578 0 2.505-.777 4.364-2.33 5.576-1.553 1.212-3.857 1.818-6.914 1.818-3.047 0-5.347-.606-6.9-1.818-1.552-1.212-2.329-3.07-2.332-5.576 0-2.505.777-4.364 2.33-5.578 1.552-1.213 3.852-1.82 6.899-1.818 3.059-.001 5.364.605 6.917 1.818Zm-3.775 8.28c.701-.628 1.052-1.528 1.053-2.703 0-1.174-.351-2.075-1.053-2.701-.702-.626-1.749-.94-3.142-.94-1.393 0-2.437.314-3.133.94-.696.626-1.045 1.527-1.045 2.701 0 1.175.349 2.076 1.045 2.702.697.626 1.741.94 3.133.94s2.44-.314 3.142-.94ZM138.317 17.653c-.506-.242-1.235-.363-2.187-.363-.976 0-1.672.1-2.089.3-.416.2-.625.493-.625.88a.712.712 0 0 0 .087.392.74.74 0 0 0 .287.287c.249.142.677.245 1.285.31l5.194.464c1.572.142 2.753.549 3.544 1.22.791.672 1.187 1.685 1.187 3.04 0 1.279-.318 2.266-.955 2.963-.637.697-1.571 1.178-2.803 1.443-1.233.265-2.86.397-4.882.397-1.941 0-3.513-.142-4.714-.426-1.201-.284-2.126-.794-2.776-1.53-.648-.735-.996-1.774-1.043-3.118h5.361c.131.736.461 1.243.991 1.52.529.278 1.318.417 2.366.417 1.07 0 1.841-.107 2.311-.32.471-.213.705-.546.705-1 0-.374-.137-.647-.41-.818-.274-.17-.684-.28-1.232-.329l-4.999-.523c-1.583-.167-2.773-.56-3.569-1.181-.797-.621-1.196-1.609-1.196-2.964 0-1.151.318-2.058.955-2.72.636-.663 1.547-1.131 2.731-1.405 1.183-.27 2.668-.406 4.453-.406 1.774 0 3.249.138 4.427.416 1.178.277 2.098.758 2.759 1.443.661.684 1.009 1.62 1.043 2.808h-5.301a1.54 1.54 0 0 0-.296-.71 1.586 1.586 0 0 0-.609-.487Z" fill="#fff"/><mask id="a" maskUnits="userSpaceOnUse" x="-.802" y="5.992" width="37" height="32" fill="#000"><path fill="#fff" d="M-.802 5.992h37v32h-37z"/><path fill-rule="evenodd" clip-rule="evenodd" d="M19.833 32.99a13.92 13.92 0 0 1-3.457-.002c-.27 1.48-1.047 2.574-2.155 2.946-.922.311-1.804.032-1.9 0h-.003c-2.076-.695-2.667-3.689-2.82-5.882a13.235 13.235 0 0 1-2.772-3.1c-.06.25-.106.476-.149.683-.175.853-.283 1.38-.923 1.768-.954.58-2.155.289-2.219.272-1.23-.316-1.769-1.37-1.902-1.636-1.308-2.565 1.624-5.7 1.902-5.992a8.925 8.925 0 0 1 1.29-1.109 12.89 12.89 0 0 1-.03-.894c0-7.208 6.006-13.052 13.416-13.052s13.416 5.844 13.416 13.052c0 .306-.011.61-.032.91.417.298.848.656 1.265 1.093.292.292 3.225 3.427 1.915 5.992-.133.265-.672 1.318-1.902 1.636-.063.017-1.265.308-2.219-.272-.636-.388-.744-.913-.92-1.762-.041-.206-.088-.43-.146-.676a13.236 13.236 0 0 1-2.779 3.098c-.154 2.193-.746 5.177-2.819 5.871h-.002c-.097.032-.978.311-1.9 0-1.108-.372-1.886-1.466-2.155-2.945Z"/></mask><path fill-rule="evenodd" clip-rule="evenodd" d="M19.833 32.99a13.92 13.92 0 0 1-3.457-.002c-.27 1.48-1.047 2.574-2.155 2.946-.922.311-1.804.032-1.9 0h-.003c-2.076-.695-2.667-3.689-2.82-5.882a13.235 13.235 0 0 1-2.772-3.1c-.06.25-.106.476-.149.683-.175.853-.283 1.38-.923 1.768-.954.58-2.155.289-2.219.272-1.23-.316-1.769-1.37-1.902-1.636-1.308-2.565 1.624-5.7 1.902-5.992a8.925 8.925 0 0 1 1.29-1.109 12.89 12.89 0 0 1-.03-.894c0-7.208 6.006-13.052 13.416-13.052s13.416 5.844 13.416 13.052c0 .306-.011.61-.032.91.417.298.848.656 1.265 1.093.292.292 3.225 3.427 1.915 5.992-.133.265-.672 1.318-1.902 1.636-.063.017-1.265.308-2.219-.272-.636-.388-.744-.913-.92-1.762-.041-.206-.088-.43-.146-.676a13.236 13.236 0 0 1-2.779 3.098c-.154 2.193-.746 5.177-2.819 5.871h-.002c-.097.032-.978.311-1.9 0-1.108-.372-1.886-1.466-2.155-2.945Z" fill="#242343"/><path d="m19.833 32.99.984-.18-.17-.93-.938.117.124.992Zm-3.457-.002.124-.992-.939-.118-.17.931.985.179Zm-2.155 2.946-.319-.948h-.001l.32.948Zm-1.9 0 .302-.952-.303.953Zm-.003 0-.317.948.008.003.007.002.302-.953Zm-2.82-5.882.998-.07-.03-.432-.336-.273-.632.775Zm-2.772-3.1.841-.54-1.27-1.977-.544 2.286.973.232Zm-.149.683-.979-.2.98.2Zm-.923 1.768-.519-.855.52.855Zm-2.219.272.25-.968-.25.968ZM1.533 28.04l.894-.448-.003-.006-.891.454Zm1.902-5.992-.722-.692-.001.001.723.69Zm1.29-1.109.578.817.46-.325-.04-.561-.997.07Zm26.77.017-.998-.071-.04.559.457.325.58-.814Zm1.265 1.092-.722.691.007.008.008.008.707-.707Zm1.915 5.992-.89-.455-.004.007.894.448Zm-1.902 1.636.25.969-.25-.969Zm-2.219-.272-.52.854.52-.854Zm-.92-1.762.98-.202-.98.202Zm-.146-.676.972-.232-.543-2.282-1.27 1.972.84.542Zm-2.779 3.098-.63-.776-.337.274-.03.432.997.07Zm-2.819 5.871.302.953.008-.002.008-.003-.318-.948Zm-.002 0-.302-.953.302.954Zm-1.9 0 .32-.947h-.002l-.318.947Zm-3.877-1.838c.625 0 1.241-.039 1.846-.114l-.248-1.985c-.523.065-1.056.099-1.598.099v2Zm-1.86-.116c.61.077 1.23.116 1.86.116v-2a12.91 12.91 0 0 1-1.61-.1l-.25 1.984Zm-.86-1.171c-.228 1.26-.842 1.96-1.489 2.177l.637 1.896c1.57-.527 2.512-2.017 2.82-3.715l-1.967-.358Zm-1.49 2.178c-.6.202-1.214.015-1.278-.005l-.605 1.906c.13.041 1.278.414 2.523-.006l-.64-1.895Zm-1.278-.006h-.002l-.605 1.906.002.001.604-1.907Zm.013.005c-.626-.21-1.135-.8-1.516-1.79-.374-.975-.55-2.158-.624-3.214l-1.995.14c.079 1.138.275 2.548.753 3.791.472 1.23 1.296 2.484 2.747 2.97l.635-1.897Zm-6.751-7.493a14.233 14.233 0 0 0 2.981 3.334l1.264-1.55a12.234 12.234 0 0 1-2.563-2.865l-1.682 1.081Zm-.132-.772c-.063.266-.113.507-.155.713l1.959.403c.043-.209.087-.421.142-.653l-1.946-.463Zm-.155.713c-.095.46-.146.684-.22.849a.527.527 0 0 1-.243.265l1.039 1.71c1.061-.645 1.22-1.627 1.383-2.421l-1.959-.403Zm-.463 1.114c-.26.158-.591.216-.919.215-.32-.002-.55-.06-.531-.056l-.5 1.937c.083.021.485.116 1.02.119.528.002 1.274-.084 1.969-.506l-1.04-1.709Zm-1.45.159c-.769-.198-1.136-.872-1.258-1.116l-1.788.896c.144.289.856 1.722 2.547 2.157l.498-1.937Zm-1.261-1.122c-.426-.835-.21-1.87.349-2.927a9.35 9.35 0 0 1 1.386-1.92l-1.447-1.382a11.342 11.342 0 0 0-1.707 2.366C.356 24.948-.24 26.763.642 28.493l1.782-.908Zm1.733-4.846a7.93 7.93 0 0 1 1.146-.985l-1.155-1.632c-.47.333-.96.737-1.435 1.233l1.444 1.384Zm-.462-2.695c0 .324.01.645.033.964l1.995-.139a11.894 11.894 0 0 1-.028-.825h-2ZM18.11 5.992c-7.936 0-14.416 6.266-14.416 14.052h2c0-6.63 5.532-12.052 12.416-12.052v-2Zm14.416 14.052c0-7.786-6.48-14.052-14.416-14.052v2c6.883 0 12.416 5.422 12.416 12.052h2Zm-.035.981c.023-.324.035-.651.035-.98h-2c0 .281-.01.561-.03.839l1.995.141Zm-1.578.743c.373.267.755.585 1.124.97l1.445-1.383a9.909 9.909 0 0 0-1.407-1.215l-1.162 1.628Zm1.139.986c.108.108.84.885 1.382 1.905.56 1.056.776 2.09.35 2.925l1.78.91c.884-1.73.288-3.546-.364-4.773a11.013 11.013 0 0 0-1.733-2.381l-1.415 1.414Zm1.728 4.837c-.121.242-.489.917-1.258 1.116l.5 1.936c1.69-.437 2.402-1.869 2.546-2.155l-1.788-.897Zm-1.257 1.116c.02-.005-.212.054-.532.056-.327.001-.659-.057-.918-.215l-1.04 1.71c.695.421 1.441.508 1.969.505a4.455 4.455 0 0 0 1.02-.12l-.499-1.936Zm-1.45-.158a.525.525 0 0 1-.24-.264c-.074-.165-.125-.388-.22-.846l-1.959.404c.163.79.322 1.77 1.379 2.413l1.04-1.707Zm-.46-1.11a22.807 22.807 0 0 0-.154-.706l-1.945.463c.054.23.098.44.14.647l1.96-.404Zm-3.274 3.4a14.236 14.236 0 0 0 2.988-3.333l-1.681-1.083a12.233 12.233 0 0 1-2.569 2.864l1.262 1.552Zm-1.628-.846c-.074 1.055-.251 2.236-.626 3.208-.38.987-.889 1.576-1.513 1.785l.635 1.896c1.448-.485 2.272-1.735 2.744-2.962.479-1.241.675-2.649.755-3.787l-1.995-.14Zm-2.124 4.988h-.002l.604 1.907h.002l-.604-1.907Zm-.003 0c-.064.02-.678.208-1.277.006l-.64 1.895c1.244.42 2.393.047 2.523.006l-.606-1.906Zm-1.279.005c-.646-.217-1.26-.916-1.489-2.176l-1.968.358c.31 1.698 1.252 3.187 2.82 3.714l.637-1.896Z" fill="#fff" mask="url(#a)"/><path d="M18.11 26.907c4.936 0 8.937-3.073 8.937-6.863 0-3.79-4.001-6.863-8.936-6.863s-8.936 3.072-8.936 6.863c0 3.79 4 6.863 8.936 6.863Z" fill="#fff"/><path d="M14.283 21.783c1.068 0 1.933-1.126 1.933-2.516 0-1.39-.865-2.516-1.933-2.516s-1.933 1.127-1.933 2.516c0 1.39.865 2.516 1.933 2.516ZM21.612 21.783c1.068 0 1.933-1.126 1.933-2.516 0-1.39-.865-2.516-1.933-2.516s-1.933 1.127-1.933 2.516c0 1.39.865 2.516 1.933 2.516Z" fill="#242343"/></svg>
